X:1
T:Hallelujah, Hallelujah
T:Hallelujah, Hallelujah
T:Joseph Lincoln Hall
T:Irvin H. Mack, 1900
T:Public Domain Courtesy of the Cyber Hymnal™
T:Public Domain Courtesy of the Cyber Hymnal™
C:Joseph Lincoln Hall
Z:Public Domain
Z:Courtesy of the Cyber Hymnal™
%%score ( 1 2 ) ( 3 4 )
L:1/8
Q:1/4=100
M:4/4
K:Bb
V:1 treble 
V:2 treble 
V:3 bass 
V:4 bass 
V:1
"^Leader" (DE) | F2 FF G2 F2 | d6"^School" [Fd]>[Fe] | [Fd]4 [Ec]2 [Ec]>[Fd] | %4
w: 1.~The *|Lord has a- ris’n on|high, Hal- le-|lu- jah, hal- le-|
w: 2.~The *|king- dom of Heav’n brought|near, Hal- le-|lu- jah, hal- le-|
w: 3.~He *|came to the lone and|sad, Hal- le-|lu- jah, hal- le-|
 [Ec]4 [DB]2"^Leader" (DE) | F2 FF G2 F2 | d6"^School" [Fd]>[Fe] | (d2 c2) [Af]2 [EA]>[EA] | %8
w: lu- jah, Sal- *|va- tion to men brought|nigh, Hal- le-|lu- * jah, hal- le-|
w: lu- jah, And *|peace by His pow’r is|here, Hal- le-|lu- * jah, hal- le-|
w: lu- jah, He *|bids ev- ery heart be|glad, Hal- le-|lu- * jah, hal- le-|
 [Ec]4 !fermata![DB]2"^Leader" (B>A) | [EG]2 ([EG]>[FA]) [GB]2 [EG]2 | F6 (B>A) | %11
w: lu- jah, Death’s *|power is * rent in|twain, The *|
w: lu- jah, For *|men sal- * va- tion|won, The *|
w: lu- jah, Sing *|praise to * Je- sus’|name, Sing *|
 [EG]2 [EG]>[FA] [GB]2 [_Gc]2 | [Fd]6 [Fd][Fd] | [Fd]2 [FG]2 [=Ec]2 [Ec]>[Ec] | %14
w: grave in its might is|slain, Je- sus|lives a- gain, Hail His|
w: fear of the grave is|gone, Christ is|on the throne, Hail the|
w: forth with a loud ac-|claim, For man-|kind He came, Suf- fered|
 [Ec]2 [EF]2 [DB]2"^School" [FB][FA] | [EG]4 [Ge]2 [Gd][Gc] | ([FB]2 [EA]2) [DB]4 |: %17
w: glor- ious reign, Hal- le-|lu- jah, hal- le-|lu- * jah.|
w: ris- en Son, Hal- le-|lu- jah, hal- le-|lu- * jah.|
w: death and shame, Hal- le-|lu- jah, hal- le-|lu- * jah.|
"^Refrain" [DB]2 [DB]2 BDFB | [Fd]4 [DB]4 | [Ec]2 [Ec]2 cGcd | [Ge]4 [Ec]4 |1 [Ff]3 [Fd] B2 F2 | %22
w: |||||
w: Hal- le- lu- jah, hal- le-|lu- jah,|Hal- le- lu- jah, hal- le-|lu- jah,|He is ris- en,|
w: |||||
 [Ge]3 [Gd] [Gc]2 [EG]2 | [=Ec]2 [Ec][Ec] [Fc]2 [Ec]2 | %24
w: ||
w: all vic- tor- ious,|Praise to His glor- ious|
w: ||
 (z2 [fac'f']>[fac'f'] [fac'f']2 [fac'f']2) :|2 [Ff]3 [Fd] [FB]2 F2 || [EG]2 [Ge]2 [Gd]2 [Gc]2 | %27
w: |||
w: |name; He is ris-|en, hal- le- lu-|
w: |||
 [FB]4 [EA]4 | [DB]6 |] %29
w: ||
w: jah, Praise|His|
w: ||
V:2
 x2 | x8 | x8 | x8 | x8 | x8 | x8 | F4 x4 | x6 D2 | x8 | (D2 E2 D2) D2 | x8 | x8 | x8 | x8 | x8 | %16
 x8 |: x4 BDFB | x8 | x4 cGcd | x8 |1 x6 F2 | x8 | x8 | [Ec]6 x2 :|2 x6 F2 || x8 | x8 | x6 |] %29
V:3
 z2 | B,,2 [F,B,D]2 [F,B,D]2 [F,B,D]2 | (B,,2 [F,B,D]2 [F,B,D]2) [F,B,]>[F,B,] | %3
 [F,A,]4 [F,A,]2 [F,A,]>[F,A,] | [F,A,]4 [B,,B,]2 z2 | B,,2 [F,B,D]2 [F,B,D]2 [F,B,D]2 | %6
 (B,,2 [F,B,D]2 [F,B,D]2) [F,B,]>[F,B,] | [F,A,]4 [F,E]2 [F,C]>[F,C] | %8
 [F,A,]4 !fermata![B,,B,]2 [B,,B,]2 | [E,B,]2 [E,B,]>[E,B,] [E,B,]2 [E,B,]2 | %10
 (B,2 G,2 F,2) [B,,B,]2 | [E,B,]2 [E,B,]>[E,B,] [E,B,]2 [E,B,]2 | [B,,B,]6 [B,,B,][B,,B,] | %13
 [G,=B,]2 [G,B,]2 [C,_B,]2 [C,B,]>[C,B,] | [F,A,]2 [F,A,]2 [B,,B,]2 [D,B,][D,B,] | %15
 [E,B,]4 [C,C]2 [D,=B,][E,C] | (D2 C2) [B,,B,]4 |: [B,,F,]2 [B,,F,]2 B,D,F,B, | [B,,B,]4 [B,,B,]4 | %19
 [C,G,]2 [C,G,]2 CG,CD | [C,C]4 [C,C]4 |1 [D,B,]3 [D,B,] [D,B,]2 [D,B,]2 | %22
 [C,C]3 [D,=B,] [E,C]2 [C,C]2 | [C,B,]2 [C,B,][C,B,] [C,B,]2 [C,G,]2 | z2 [F,A,CE]6 :|2 %25
 [D,B,]3 [D,B,] [D,B,]2 [D,B,]2 || [E,B,]2 [C,C]2 [D,=B,]2 [E,C]2 | [F,D]4 [F,C]4 | [B,,B,]6 |] %29
V:4
 x2 | x8 | x8 | x8 | x8 | x8 | x8 | x8 | x8 | x8 | B,,6 x2 | x8 | x8 | x8 | x8 | x8 | F,4 x4 |: %17
 x4 B,D,F,B, | x8 | x5 G,CD | x8 |1 x8 | x8 | x8 | [F,A,]6 x2 :|2 x8 || x8 | x8 | x6 |] %29

